icons/Map/car-fill.svg

<svg viewBox="0 0 24 24" xmlns="http://www.w3.org/2000/svg"><path d="M19 20H5V21C5 21.5523 4.55228 22 4 22H3C2.44772 22 2 21.5523 2 21V12L4.51334 5.29775C4.80607 4.51715 5.55231 4 6.386 4H17.614C18.4477 4 19.1939 4.51715 19.4867 5.29775L22 12V21C22 21.5523 21.5523 22 21 22H20C19.4477 22 19 21.5523 19 21V20ZM4.136 12H19.864L17.614 6H6.386L4.136 12ZM6.5 17C7.32843 17 8 16.3284 8 15.5C8 14.6716 7.32843 14 6.5 14C5.67157 14 5 14.6716 5 15.5C5 16.3284 5.67157 17 6.5 17ZM17.5 17C18.3284 17 19 16.3284 19 15.5C19 14.6716 18.3284 14 17.5 14C16.6716 14 16 14.6716 16 15.5C16 16.3284 16.6716 17 17.5 17Z"/></svg>

<svg xmlns="http://www.w3.org/2000/svg" viewBox="0 0 24 24">
    <g>
        <path fill="none" d="M0 0h24v24H0z"/>
        <path d="M19 20H5v1a1 1 0 0 1-1 1H3a1 1 0 0 1-1-1v-9l2.513-6.702A2 2 0 0 1 6.386 4h11.228a2 2 0 0 1 1.873 1.298L22 12v9a1 1 0 0 1-1 1h-1a1 1 0 0 1-1-1v-1zM4.136 12h15.728l-2.25-6H6.386l-2.25 6zM6.5 17a1.5 1.5 0 1 0 0-3 1.5 1.5 0 0 0 0 3zm11 0a1.5 1.5 0 1 0 0-3 1.5 1.5 0 0 0 0 3z"/>
    </g>
</svg>
